icons/mobile/24/svg/shield-cross-24.svg

<svg width="24" height="24" viewBox="0 0 24 24" fill="none" xmlns="http://www.w3.org/2000/svg">
<path d="M10.0435 3.09283C11.223 2.30546 12.7504 2.29704 13.9312 3.10748C14.4312 3.4507 14.9745 3.79823 15.5611 4.13971L16.1627 4.47955L16.8062 4.81939C17.4429 5.14514 18.0598 5.42778 18.648 5.67291C20.143 6.29554 20.969 7.88045 20.6763 9.45318L20.1089 12.4991C19.8679 13.8024 19.4236 15.1128 18.6685 16.2588L18.6675 16.2628C17.367 18.2352 15.6214 19.9076 13.7222 21.0333C12.6496 21.6687 11.3142 21.6477 10.2574 21.0196H10.2564C8.3678 19.896 6.63262 18.2304 5.33843 16.2696C4.57908 15.1182 4.13596 13.8015 3.89409 12.4922L3.89312 12.4913L3.32378 9.39459V9.39361C3.03842 7.83875 3.84088 6.23594 5.34038 5.61138C5.97952 5.34508 6.64914 5.03652 7.33843 4.6817H7.33941C8.3438 4.16593 9.24616 3.62472 10.0435 3.09283ZM12.941 4.54986C12.3619 4.15253 11.6116 4.15059 11.0152 4.54888H11.0142C10.3779 4.97333 9.67928 5.40288 8.91949 5.82232L8.13921 6.23834C7.58974 6.52118 7.05173 6.77637 6.52984 7.00592L6.01324 7.22662C5.31334 7.51809 4.90039 8.29056 5.04449 9.07721L5.6148 12.1739L5.70171 12.6016C5.92399 13.5897 6.27762 14.5145 6.79937 15.3057L7.02007 15.6309C8.14819 17.2397 9.60377 18.5947 11.1519 19.5157H11.1509C11.672 19.8254 12.3224 19.8286 12.8296 19.5284C14.4899 18.5444 16.0433 17.0607 17.2046 15.2999L17.2066 15.2969C17.8008 14.3954 18.1774 13.3216 18.3882 12.1817L18.3892 12.1807L18.9556 9.13287L18.9761 8.98638C19.0479 8.25785 18.6448 7.56813 17.9752 7.28912L17.9742 7.28814C17.1366 6.93904 16.2453 6.51929 15.3228 6.01471V6.01373C14.446 5.53448 13.652 5.03796 12.941 4.54986Z" fill="black"/>
<path d="M13.5054 9.25535C13.847 8.91377 14.402 8.91404 14.7437 9.25535C15.0854 9.59706 15.0854 10.1519 14.7437 10.4936L13.2379 11.9995L14.7437 13.5053C15.0854 13.8471 15.0854 14.4019 14.7437 14.7436C14.402 15.0853 13.8471 15.0853 13.5054 14.7436L11.9996 13.2378L10.4937 14.7436C10.152 15.0853 9.59714 15.0853 9.25545 14.7436C8.91416 14.4019 8.91392 13.8469 9.25545 13.5053L10.7613 11.9995L9.25545 10.4936C8.91416 10.1519 8.91392 9.59693 9.25545 9.25535C9.59702 8.91377 10.152 8.91404 10.4937 9.25535L11.9996 10.7612L13.5054 9.25535Z" fill="black"/>
</svg>

<!-- This Source Code Form is subject to the terms of the Mozilla Public
   - License, v. 2.0. If a copy of the MPL was not distributed with this
   - file, You can obtain one at http://mozilla.org/MPL/2.0/. -->
<svg xmlns="http://www.w3.org/2000/svg" width="24" height="24" fill="none" viewBox="0 0 24 24">
    <path fill="#000" d="M10.044 3.093a3.45 3.45 0 0 1 3.887.014c.5.344 1.044.691 1.63 1.033l.602.34.643.34a26 26 0 0 0 1.842.853 3.41 3.41 0 0 1 2.028 3.78L20.11 12.5c-.241 1.303-.685 2.614-1.44 3.76l-.002.004c-1.3 1.972-3.046 3.645-4.945 4.77a3.4 3.4 0 0 1-3.465-.013c-1.89-1.124-3.624-2.79-4.919-4.75-.759-1.152-1.202-2.468-1.444-3.778l-.57-3.097v-.001C3.038 7.839 3.84 6.236 5.34 5.61a27 27 0 0 0 1.998-.93h.001a28 28 0 0 0 2.704-1.588M12.94 4.55c-.58-.397-1.33-.4-1.926-.001a29 29 0 0 1-2.096 1.273l-.78.416q-.825.424-1.61.768l-.516.22c-.7.292-1.113 1.065-.969 1.851l.57 3.097.088.428c.222.988.576 1.912 1.097 2.704l.221.325c1.128 1.609 2.584 2.964 4.132 3.885h-.001c.521.31 1.171.313 1.679.012 1.66-.984 3.213-2.467 4.375-4.228l.002-.003c.594-.902.97-1.975 1.181-3.115l.001-.001.567-3.048.02-.147a1.655 1.655 0 0 0-1-1.697h-.002a28 28 0 0 1-2.651-1.274v-.001A28 28 0 0 1 12.94 4.55" />
    <path fill="#000" d="M13.505 9.255a.877.877 0 0 1 1.239 1.239l-1.506 1.505 1.506 1.506a.876.876 0 0 1-1.239 1.239L12 13.238l-1.506 1.506a.876.876 0 0 1-1.239-1.239L10.761 12l-1.506-1.505a.877.877 0 0 1 1.239-1.239L12 10.761z" />
</svg>
